!! 00000] TT[WS
!!!OTL: Song gege
!!!ARE: Asia, China, Shanxi Shouyang
!! Ethnic Group: Han
!! WII, 229 (1)
!!!SCT: J0740
!!!YEM: Copyright 1995, estate of Helmut Schaffrath.
**kern
*ICvox
*Ivox
*M4/4
*k[f#]
*G:
{8.cc
16b
8ee
8dd
8cc
8b
4a
=1
8.cc
16b
8ee
8dd
8cc
8b
4a}
=2
{8cc#
8dd
8cc
8a
8g
8a
8f#
8e
=3
8d
8d
8e
8c
2d}
=4
{8a
8e
4d
8a
8e
4d
=5
4cc
8cc
8dd
8ee
8b
4a}
=6
{8cc
8e
8g
8b
8a
8g
8f#
8e
=7
4d
8e
8c
2d}
==
!!!AGN: Xiaodiao. XÅshi, Xinminge
!!!ONB: ESAC (Essen Associative Code) Database: CHINA
!!!AMT: simple quadruple
!!!AIN: vox
!!!EED: Helmut Schaffrath
!!!EEV: 1.0
*-
